X: 37060
T: Silver Spear, The
R: reel
M: 4/4
K: Dmajor
AG|:FA ~A2 BAFA|dfed BcdA|FA ~A2 BAFA|dfed ~B3 A|
FA ~A2 BAFA|dfed Bdef|~g3 e ~f3 e|1 dfed ~B2 A2:|2 dfed Bcde||
|:f2 af bfaf|gfed Bcde|f2 af bfaf|gfed ~B2 A2|
f2 af bfaf|gfed Bdef|~g3 e ~f3 e|1 dfed ~B2 A2:|2 dfed ~B2||

